public/pieces/icpieces/bR.svg

<svg height="368" width="368" xmlns="http://www.w3.org/2000/svg"><path d="m82 91v36c0 4.828-1.1829 11.564 1.0278 16 1.6805 3.372 4.9465 6.177 7.3966 9 6.4753 7.461 13.3336 14.585 19.8606 22 2.739 3.111 6.457 6.033 7.973 10 2.375 6.219.742 15.413.742 22 0 15.482 1.284 31.581-.059 47-.558 6.414-6.69 10.749-10.941 15-10.0674 10.067-21.882 19.744-30.6065 31-8.0802 10.425-4.3935 29.531-4.3935 42h222c0-12.469 3.687-31.575-4.394-42-8.724-11.256-20.539-20.933-30.606-31-4.251-4.251-10.383-8.586-10.941-15-1.343-15.419-.059-31.518-.059-47 0-6.587-1.633-15.781.742-22 1.516-3.967 5.234-6.889 7.973-10 6.527-7.415 13.385-14.539 19.861-22 2.45-2.823 5.716-5.628 7.396-9 2.211-4.436 1.028-11.172 1.028-16v-36h-61v19h-13v-19h-56v19h-13v-19z" fill="#fff"/><path d="m92 101v25c0 3.751-.7143 8.422.6034 12 2.3169 6.291 9.7596 12.125 14.2276 16.995 1.853 2.021 3.562 4.381 6.208 5.402 7.072 2.726 18.424.603 25.961.603h60 41c4.994 0 12.527 1.399 16.83-1.603 4.751-3.315 8.657-9.058 12.455-13.397 2.165-2.474 4.948-4.841 6.112-8 1.317-3.578.603-8.249.603-12v-25h-41v19h-33v-19h-36v19h-33v-19zm37 70v99h110v-99zm-47 161h204c0-6.978 1.656-16.448-1.009-22.999-3.248-7.983-13.956-14.979-19.991-21.001-2.654-2.649-5.381-6.062-9-7.397-7.72-2.846-19.808-.603-28-.603h-62-38c-5.077 0-12.344-1.3-17 1.028-7.289 3.644-13.0903 12.368-19 17.882-3.5705 3.332-7.8138 6.207-9.3472 11.09-2.0582 6.554-.6528 15.177-.6528 22z"/></svg>

<?xml version="1.0" standalone="yes"?>
<svg xmlns="http://www.w3.org/2000/svg" width="368" height="368">
<path style="fill:#ffffff; stroke:none;" d="M82 91L82 127C82 131.828 80.8171 138.564 83.0278 143C84.7083 146.372 87.9743 149.177 90.4244 152C96.8997 159.461 103.758 166.585 110.285 174C113.024 177.111 116.742 180.033 118.258 184C120.633 190.219 119 199.413 119 206C119 221.482 120.284 237.581 118.941 253C118.383 259.414 112.251 263.749 108 268C97.9326 278.067 86.118 287.744 77.3935 299C69.3133 309.425 73 328.531 73 341L295 341C295 328.531 298.687 309.425 290.606 299C281.882 287.744 270.067 278.067 260 268C255.749 263.749 249.617 259.414 249.059 253C247.716 237.581 249 221.482 249 206C249 199.413 247.367 190.219 249.742 184C251.258 180.033 254.976 177.111 257.715 174C264.242 166.585 271.1 159.461 277.576 152C280.026 149.177 283.292 146.372 284.972 143C287.183 138.564 286 131.828 286 127L286 91L225 91L225 110L212 110L212 91L156 91L156 110L143 110L143 91L82 91z"/>
<path style="fill:#000000; stroke:none;" d="M92 101L92 126C92 129.751 91.2857 134.422 92.6034 138C94.9203 144.291 102.363 150.125 106.831 154.995C108.684 157.016 110.393 159.376 113.039 160.397C120.111 163.123 131.463 161 139 161L199 161L240 161C244.994 161 252.527 162.399 256.83 159.397C261.581 156.082 265.487 150.339 269.285 146C271.45 143.526 274.233 141.159 275.397 138C276.714 134.422 276 129.751 276 126L276 101L235 101L235 120L202 120L202 101L166 101L166 120L133 120L133 101L92 101M129 171L129 270L239 270L239 171L129 171M82 332L286 332C286 325.022 287.656 315.552 284.991 309.001C281.743 301.018 271.035 294.022 265 288C262.346 285.351 259.619 281.938 256 280.603C248.28 277.757 236.192 280 228 280L166 280L128 280C122.923 280 115.656 278.7 111 281.028C103.711 284.672 97.9097 293.396 92 298.91C88.4295 302.242 84.1862 305.117 82.6528 310C80.5946 316.554 82 325.177 82 332z"/>
</svg>
